build/img/sprites/cart.svg

<svg width="31" height="30" viewBox="0 0 31 30" fill="none" xmlns="http://www.w3.org/2000/svg">
<path d="M12.6021 25.1251C12.6021 25.4892 12.4941 25.8451 12.2918 26.1478C12.0896 26.4506 11.8021 26.6865 11.4657 26.8259C11.1293 26.9652 10.7591 27.0017 10.402 26.9306C10.0449 26.8596 9.71692 26.6843 9.45947 26.4268C9.20201 26.1694 9.02668 25.8413 8.95565 25.4842C8.88462 25.1271 8.92107 24.757 9.06041 24.4206C9.19974 24.0842 9.4357 23.7967 9.73843 23.5944C10.0412 23.3921 10.3971 23.2842 10.7612 23.2842C11.2494 23.2842 11.7177 23.4781 12.0629 23.8234C12.4081 24.1686 12.6021 24.6369 12.6021 25.1251ZM22.7271 23.2842C22.363 23.2842 22.0071 23.3921 21.7043 23.5944C21.4016 23.7967 21.1657 24.0842 21.0263 24.4206C20.887 24.757 20.8505 25.1271 20.9216 25.4842C20.9926 25.8413 21.1679 26.1694 21.4254 26.4268C21.6828 26.6843 22.0109 26.8596 22.368 26.9306C22.7251 27.0017 23.0952 26.9652 23.4316 26.8259C23.768 26.6865 24.0555 26.4506 24.2578 26.1478C24.46 25.8451 24.568 25.4892 24.568 25.1251C24.568 24.6369 24.3741 24.1686 24.0288 23.8234C23.6836 23.4781 23.2153 23.2842 22.7271 23.2842ZM28.2165 8.80313L25.2664 19.4206C25.1042 20.0006 24.7573 20.5118 24.2783 20.8769C23.7993 21.2419 23.2143 21.4407 22.612 21.4433H11.2398C10.6358 21.443 10.0485 21.2452 9.56736 20.88C9.08625 20.5148 8.73778 20.0023 8.57511 19.4206L4.53891 4.87509H2.4771C2.23298 4.87509 1.99885 4.77811 1.82624 4.60549C1.65362 4.43288 1.55664 4.19875 1.55664 3.95463C1.55664 3.71051 1.65362 3.47639 1.82624 3.30377C1.99885 3.13116 2.23298 3.03418 2.4771 3.03418H5.23846C5.43969 3.03414 5.6354 3.10005 5.79561 3.22182C5.95582 3.34359 6.07172 3.51451 6.12555 3.70841L7.21629 7.63645H27.3294C27.4713 7.63643 27.6113 7.66921 27.7384 7.73224C27.8655 7.79526 27.9764 7.88683 28.0623 7.99979C28.1481 8.11275 28.2067 8.24403 28.2335 8.38339C28.2602 8.52275 28.2544 8.6664 28.2165 8.80313ZM26.1178 9.47736H7.72829L10.3527 18.9281C10.4066 19.122 10.5225 19.293 10.6827 19.4147C10.8429 19.5365 11.0386 19.6024 11.2398 19.6024H22.612C22.8133 19.6024 23.009 19.5365 23.1692 19.4147C23.3294 19.293 23.4453 19.122 23.4991 18.9281L26.1178 9.47736Z" fill="#1B2A3B"/>
</svg>

<svg width="31" height="30" viewBox="0 0 31 30" fill="none" xmlns="http://www.w3.org/2000/svg"><path d="M12.602 25.125a1.84 1.84 0 11-3.681 0 1.84 1.84 0 013.681 0zm10.125-1.84a1.841 1.841 0 100 3.681 1.841 1.841 0 000-3.682zm5.49-14.482l-2.95 10.618a2.769 2.769 0 01-2.655 2.022H11.24a2.768 2.768 0 01-2.665-2.022L4.54 4.875H2.477a.92.92 0 110-1.84h2.761a.92.92 0 01.888.673l1.09 3.928H27.33a.92.92 0 01.887 1.167zm-2.1.674H7.729l2.625 9.451a.92.92 0 00.887.674h11.372a.92.92 0 00.887-.674l2.619-9.45z" fill="#1B2A3B"/></svg>
